X:1
T:Title
%%score ( 1 2 ) { ( 3 5 ) | 4 }
L:1/8
Q:1/4=95
M:6/8
K:D
V:1 treble nm="Grand Piano, Soprano"
V:2 treble 
V:3 bass nm="Choir Pad, From the Cyber Hymnal™"
V:5 bass 
V:4 bass 
V:1
 [FA][EG][FA] [GB][FA][FA] | [FA] [Fd]2- [Fd]2- [Fd]/ z/ | [Ec][Ec][EA] [Ec][Ec][DB] | A6 | %4
w: By~W.~E.~Erwin * * * * *||||
 [FA][=F^G][^FA] [=GB][FA][FA] | [FA] [Fd]2- [Fd]2- [Fd]/ z/ | [Gc][Gc][Gc] [GA][GB][Gc] | [Fd]6 | %8
w: ||||
[M:4/4] [GB]2 [DG]>[DA] [GB][Bd] [Ac]>[GB] | [GB]2 [FA]4 z2 | [Ec]2 [Ec]>[Fd] [Ge]4 | %11
w: |||
 [Fd]2 [Fd]>[Ge] [Af]4 | [Fd]2 [Fd]>[A=c] [GB]2 [FA]>[=F^G] | [FA]2 [A=c]2 [GB]4 | %14
w: |||
 [Gc]2 [Gc]>[GB] [GA]2 [GB]>[Gc] | [Fd]8 |] %16
w: ||
V:2
 x6 | x6 | x6 | C2 D E3 | x6 | x6 | x6 | x6 |[M:4/4] x8 | x8 | x8 | x8 | x8 | x8 | x8 | x8 |] %16
V:3
 A,B,A, DDD | D A,2- A,2- A,/ z/ | A,A,A, A,A,^G, | A,2 B,[K:treble] C3 | DDD DDD | %5
 D[K:bass] A,2- A,2- A,/ z/ | A,A,A,[K:treble] CDE | D6 |[M:4/4] D2 B,>C D2 D>D | D2 D4 z2 | %10
 A,2 A,>A, C4 | A,2 A,>A,[K:treble] D4 | A,2 D>D D2 D>D | D4[K:bass] z4 | A,2 A,>D C2 A,>A, | %15
 A,8 |] %16
V:4
 D,D,D, D,D,D, | D, D,2- D,2- D,/ z/ | A,,A,,C, E,E,E, | A,,6 | D,D,D, D,D,D, | %5
 D, D,2- D,2- D,/ z/ | A,,A,,A,, A,,A,,A,, | D,6 |[M:4/4] G,2 G,>G, G,2 G,>G, | D,2 D,4 z2 | %10
 A,,2 A,,>A,, A,,4 | D,2 D,>D, D,4 | D,2 D,>F, G,2 D,>D, | D,2 F,,2 [G,,G,]4 | %14
 A,,2 A,,>[A,,A,] A,,2 A,,>A,, | D,8 |] %16
V:5
 x6 | x6 | x6 | x3[K:treble] x3 | x6 | x[K:bass] x5 | x3[K:treble] x3 | x6 |[M:4/4] x8 | x8 | x8 | %11
 x4[K:treble] x4 | x8 | z2[K:bass] F,2 D4 | x8 | x8 |] %16

